icons/fill-new-textedit-office-image-text-list.svg

<svg xmlns="http://www.w3.org/2000/svg" width="32px" height="32px" viewBox="0 0 32 32" version="1.1">
    <title>fill-new-textedit-office-image-text-list</title>
    <g id="fill-new-textedit-office-image-text-list" stroke-width="1" fill-rule="evenodd">
        <path d="M4,3 L13,3 C13.5522847,3 14,3.44771525 14,4 L14,13 C14,13.5522847 13.5522847,14 13,14 L4,14 C3.44771525,14 3,13.5522847 3,13 L3,4 C3,3.44771525 3.44771525,3 4,3 Z M4,18 L13,18 C13.5522847,18 14,18.4477153 14,19 L14,28 C14,28.5522847 13.5522847,29 13,29 L4,29 C3.44771525,29 3,28.5522847 3,28 L3,19 C3,18.4477153 3.44771525,18 4,18 Z M28,4 C28.5522847,4 29,4.44771525 29,5 C29,5.55228475 28.5522847,6 28,6 L18,6 C17.4477153,6 17,5.55228475 17,5 C17,4.44771525 17.4477153,4 18,4 L28,4 Z M28,11 C28.5522847,11 29,11.4477153 29,12 C29,12.5522847 28.5522847,13 28,13 L18,13 C17.4477153,13 17,12.5522847 17,12 C17,11.4477153 17.4477153,11 18,11 L28,11 Z M28,19 C28.5522847,19 29,19.4477153 29,20 C29,20.5522847 28.5522847,21 28,21 L18,21 C17.4477153,21 17,20.5522847 17,20 C17,19.4477153 17.4477153,19 18,19 L28,19 Z M28,26 C28.5522847,26 29,26.4477153 29,27 C29,27.5522847 28.5522847,28 28,28 L18,28 C17.4477153,28 17,27.5522847 17,27 C17,26.4477153 17.4477153,26 18,26 L28,26 Z" id="&#24418;&#29366;" />
    </g>
</svg>

<svg xmlns="http://www.w3.org/2000/svg" viewBox="0 0 32 32"><path fill="currentColor" d="M4 3h9a1 1 0 0 1 1 1v9a1 1 0 0 1-1 1H4a1 1 0 0 1-1-1V4a1 1 0 0 1 1-1m0 15h9a1 1 0 0 1 1 1v9a1 1 0 0 1-1 1H4a1 1 0 0 1-1-1v-9a1 1 0 0 1 1-1M28 4a1 1 0 0 1 0 2H18a1 1 0 0 1 0-2zm0 7a1 1 0 0 1 0 2H18a1 1 0 0 1 0-2zm0 8a1 1 0 0 1 0 2H18a1 1 0 0 1 0-2zm0 7a1 1 0 0 1 0 2H18a1 1 0 0 1 0-2z"/></svg>
